assets/img/braze_icons/message-smile-square.svg

<svg fill="none" height="24" viewBox="0 0 24 24" width="24" xmlns="http://www.w3.org/2000/svg"><path clip-rule="evenodd" d="m16.2414 2h-8.4826c-.80497-.00001-1.46934-.00002-2.01053.04419-.5621.04593-1.0788.14449-1.56414.39179-.75264.38349-1.36457.99541-1.74806 1.74806-.24729.48533-.34585 1.00204-.39178 1.56414-.04422.54119-.04421 1.20555-.04419 2.01052l-.00005 6.3789c-.00043.7954-.00075 1.386.13634 1.8977.36987 1.3803 1.44806 2.4585 2.82843 2.8284.30747.0824.64347.1152 1.03528.1281l-.00001 1.3792c-.00004.2352-.00009.475.01776.6715.01707.188.06227.5427.30993.853.28498.357.71712.5647 1.17394.5642.39698-.0004.70222-.1867.85965-.2908.1646-.1089.35183-.2587.53551-.4057l2.41312-1.9305c.5186-.4149.6726-.532.8325-.6137.1605-.082.3313-.1419.5079-.1782.1759-.0361.3693-.0408 1.0334-.0408h2.5576c.805 0 1.4693 0 2.0105-.0442.5621-.0459 1.0788-.1445 1.5642-.3918.7526-.3835 1.3645-.9954 1.748-1.748.2473-.4854.3459-1.0021.3918-1.5642.0442-.5412.0442-1.2055.0442-2.0105v-5.48262c0-.80496 0-1.46932-.0442-2.0105-.0459-.5621-.1445-1.07881-.3918-1.56414-.3835-.75265-.9954-1.36457-1.748-1.74806-.4854-.2473-1.0021-.34586-1.5642-.39179-.5412-.04421-1.2055-.0442-2.0105-.04419zm-2.7487 5.5c0-.82843.6715-1.5 1.5-1.5.8284 0 1.5.67157 1.5 1.5s-.6716 1.5-1.5 1.5c-.8285 0-1.5-.67157-1.5-1.5zm-6.10002 4.2001c.44044-.3304 1.06469-.2424 1.39686.1958.06165.0787.12948.1527.19857.2248.1473.1537.36864.3622.65525.5706.57704.4197 1.37484.8088 2.34934.8088s1.7723-.3891 2.3493-.8088c.2866-.2084.508-.4169.6553-.5706.069-.0721.1369-.1462.1985-.2248.3322-.4382.9564-.5262 1.3969-.1958.4418.3313.5314.9581.2 1.4.0025-.0033-.0034.0042-.0136.017-.0244.0307-.0732.092-.0898.1118-.0586.0698-.1416.1645-.2481.2756-.212.2213-.5219.5127-.9228.8043-.798.5803-2.0002 1.1913-3.5257 1.1913s-2.72775-.611-3.52569-1.1913c-.40089-.2916-.7108-.583-.92288-.8043-.10645-.1111-.18944-.2058-.24808-.2756-.02936-.035-.05272-.0639-.06996-.0857-.34543-.4463-.299-1.0939.16659-1.4431zm1.6-5.7001c-.82843 0-1.5.67157-1.5 1.5s.67157 1.5 1.5 1.5c.82842 0 1.50002-.67157 1.50002-1.5s-.6716-1.5-1.50002-1.5z" fill="#801ed7" fill-rule="evenodd"/></svg>

<svg width="24" height="24" viewBox="0 0 24 24" fill="none" xmlns="http://www.w3.org/2000/svg">
<path fill-rule="evenodd" clip-rule="evenodd" d="M16.2414 2H7.7588C6.95383 1.99999 6.28946 1.99998 5.74827 2.04419C5.18617 2.09012 4.66947 2.18868 4.18413 2.43598C3.43149 2.81947 2.81956 3.43139 2.43607 4.18404C2.18878 4.66937 2.09022 5.18608 2.04429 5.74818C2.00007 6.28937 2.00008 6.95373 2.0001 7.7587L2.00005 14.1376C1.99962 14.933 1.9993 15.5236 2.13639 16.0353C2.50626 17.4156 3.58445 18.4938 4.96482 18.8637C5.27229 18.9461 5.60829 18.9789 6.0001 18.9918L6.00009 20.371C6.00005 20.6062 6 20.846 6.01785 21.0425C6.03492 21.2305 6.08012 21.5852 6.32778 21.8955C6.61276 22.2525 7.0449 22.4602 7.50172 22.4597C7.8987 22.4593 8.20394 22.273 8.36137 22.1689C8.52597 22.06 8.7132 21.9102 8.89688 21.7632L11.31 19.8327C11.8286 19.4178 11.9826 19.3007 12.1425 19.219C12.303 19.137 12.4738 19.0771 12.6504 19.0408C12.8263 19.0047 13.0197 19 13.6838 19H16.2414C17.0464 19 17.7107 19 18.2519 18.9558C18.814 18.9099 19.3307 18.8113 19.8161 18.564C20.5687 18.1805 21.1806 17.5686 21.5641 16.816C21.8114 16.3306 21.91 15.8139 21.9559 15.2518C22.0001 14.7106 22.0001 14.0463 22.0001 13.2413V7.75868C22.0001 6.95372 22.0001 6.28936 21.9559 5.74818C21.91 5.18608 21.8114 4.66937 21.5641 4.18404C21.1806 3.43139 20.5687 2.81947 19.8161 2.43598C19.3307 2.18868 18.814 2.09012 18.2519 2.04419C17.7107 1.99998 17.0464 1.99999 16.2414 2ZM13.4927 7.5C13.4927 6.67157 14.1642 6 14.9927 6C15.8211 6 16.4927 6.67157 16.4927 7.5C16.4927 8.32843 15.8211 9 14.9927 9C14.1642 9 13.4927 8.32843 13.4927 7.5ZM7.39268 11.7001C7.83312 11.3697 8.45737 11.4577 8.78954 11.8959C8.85119 11.9746 8.91902 12.0486 8.98811 12.1207C9.13541 12.2744 9.35675 12.4829 9.64336 12.6913C10.2204 13.111 11.0182 13.5001 11.9927 13.5001C12.9672 13.5001 13.765 13.111 14.342 12.6913C14.6286 12.4829 14.85 12.2744 14.9973 12.1207C15.0663 12.0486 15.1342 11.9745 15.1958 11.8959C15.528 11.4577 16.1522 11.3697 16.5927 11.7001C17.0345 12.0314 17.1241 12.6582 16.7927 13.1001C16.7952 13.0968 16.7893 13.1043 16.7791 13.1171C16.7547 13.1478 16.7059 13.2091 16.6893 13.2289C16.6307 13.2987 16.5477 13.3934 16.4412 13.5045C16.2292 13.7258 15.9193 14.0172 15.5184 14.3088C14.7204 14.8891 13.5182 15.5001 11.9927 15.5001C10.4672 15.5001 9.26495 14.8891 8.46701 14.3088C8.06612 14.0172 7.75621 13.7258 7.54413 13.5045C7.43768 13.3934 7.35469 13.2987 7.29605 13.2289C7.26669 13.1939 7.24333 13.165 7.22609 13.1432C6.88066 12.6969 6.92709 12.0493 7.39268 11.7001ZM8.99268 6C8.16425 6 7.49268 6.67157 7.49268 7.5C7.49268 8.32843 8.16425 9 8.99268 9C9.8211 9 10.4927 8.32843 10.4927 7.5C10.4927 6.67157 9.8211 6 8.99268 6Z" fill="#801ED7"/>
</svg>
